X: 22527
T: Lady Gordon Of Gordonstown
R: reel
M: 4/4
K: Cmajor
K:Cmix
F|E2CD EFGE|DB,FB, GB,FD|E2CD EFGE|DB,FD ECCF|
E2CD EFGE|DB,FB, DEFD|Ccec dBBa|gfed ecc||
a|g2ec Gceg|fBdB FBdf|g2ec Gceg|fdbd c/c/c ca|
g2ec Gceg|fBdB FBdf|gefd cdcG|FBFD ECC||

